!!!COM:	la Rue, Pierre de
!!!CDT:	~1452///-1518/11/20
!!!OTL:	Pour ung jamais
!!!AGN:	Song; Chanson
!!!SCT:	Rue3020
!!!SCA:	Rue3020
!!!voices:	3
**kern	**kern	**kern
*staff3	*staff2	*staff1
*Ivox	*Ivox	*Ivox
*I"Bariton	*I"Tenor	*I"Discantus
*I'Bt	*I'T	*I'D
*clefF4	*clefGv2	*clefG2
*k[]	*k[]	*k[]
*M2/1	*M2/1	*M2/1
*met(C2)	*met(C2)	*met(C2)
=1-	=1-	=1-
0E	0r	0r
=2.	=2.	=2.
1F	0r	0r
2D\	.	.
[2E\	.	.
=3	=3	=3
2E\]	0e	0r
4D\	.	.
4C/	.	.
2G\	.	.
[2A\	.	.
=4.	=4.	=4.
2A\]	1f	0r
4G\	.	.
4F\	.	.
1G	2d\	.
.	[2e\	.
=5	=5	=5
1r	2e\]	0b
.	4d\	.
.	4c\	.
1G	1d	.
=6.	=6.	=6.
1A	1c	1cc
2F\	2r	2a/
[2G\	2d\	[2b\
=7	=7	=7
2G\]	1e	2b\]
4F\	.	4a/
4E\	.	4g/
1D	1f	1a
=8.	=8.	=8.
1E	2e\	1g
.	1e	.
1AA	.	2r
.	4d\	2a/
.	4c\	.
=9	=9	=9
1r	2d\	1b
.	2e\	.
1A	1A	1cc
=10.	=10.	=10.
2G\	2r	2b\
1G	2e\	1b
.	1g	.
4F\	.	4a/
4E\	.	4g/
=11	=11	=11
2D\	2f\	2a/
2G\	1e	2b\
1A	.	1e
.	4d\	.
.	4c\	.
=12.	=12.	=12.
2.G\	2d\	2r
.	2e\	2b\
4F\	.	.
1D	1f	1dd
=13	=13	=13
2r	0e	2cc\
1G	.	1b
4F\	.	4a/
4E\	.	4g/
=14.	=14.	=14.
2F\	1d	2a/
2G\	.	2b\
2A\	2c\	2.cc\
2F\	[2d\	.
.	.	4b\
=15	=15	=15
2G\	4d\]	4b\
.	4c\	4a/
2A\	4B\	1a
.	4A/	.
1E	1B	.
.	.	2g#i/
=16.	=16.	=16.
1r	1A	[0a
1AA	2r	.
.	2c\	.
=17	=17	=17
1D	1f	0a]
1D	1f	.
=18.	=18.	=18.
1C	1e	1r
2AA/	2r	1e
[2C/	2c\	.
=19	=19	=19
2C/]	1d	1f
4BB/	.	.
4AA/	.	.
1BB	1d	1f
=20.	=20.	=20.
1C	1c	0e
2r	2r	.
2C/	2e\	.
=21	=21	=21
1D	1f	1r
2C/	1e	2r
2E\	.	2g/
=22.	=22.	=22.
2.F\	2r	1a
.	2d\	.
4E\	.	.
2C/	2e\	1g
2E\	2e\	.
=23	=23	=23
4D\	4f\	2r
4C/	4e\	.
4BB/	4d\	2a/
4AA/	4c\	.
2GG/	1d	2b\
2G\	.	2b\
=24.	=24.	=24.
4A\	1c	4cc\
4G\	.	4b\
4F\	.	4a/
4E\	.	4g/
1F	2r	1a
.	2d\	.
=25	=25	=25
1E	2e\	1g
.	2.c\	.
2r	.	2r
.	4d\	.
2A\	4e\	2a/
.	4f\	.
=26.	=26.	=26.
2G\	2g\	2b\
2E\	1g	2.g/
1G	.	.
.	.	4a/
.	4f\	4b\
.	4e\	4cc\
=27	=27	=27
1r	4f\	2dd\
.	4e\	.
.	4d\	1cc
.	4c\	.
1G	1d	.
.	.	2b\
=28.	=28.	=28.
2A\	1c	0cc
2A\	.	.
2F\	2r	.
[2A\	2f\	.
=29	=29	=29
4A\]	1f	1r
4G\	.	.
1F	.	.
.	1f	2r
4E\	.	2cc\
4D\	.	.
=30.	=30.	=30.
0C	1e	1cc
.	1c	1cc
=31	=31	=31
1r	2d\	1b
.	2.e\	.
1E	.	1g
.	4d\	.
.	4c\	.
.	4B\	.
=32.	=32.	=32.
2F\	2A/	2a/
2.G\	2d\	2.b\
.	2d\	.
4F\	.	4a/
4E\	2d\	4g/
4D\	.	4f/
=33	=33	=33
1C	2e\	2e/
.	4d\	2g/
.	4c\	.
2r	4B\	2g/
.	4c\	.
2G\	4d\	2g/
.	4e\	.
=34.	=34.	=34.
4D\	2f\	2a/
4E\	.	.
4F\	4e\	4g/
4G\	4d\	4f/
2A\	1c	2e/
[2F\	.	[2a/
=35	=35	=35
4F\]	0d	4a/]
4E\	.	4g/
4D\	.	4f/
4C/	.	4e/
2.BB-/	.	1f
4AA/	.	.
=36.	=36.	=36.
1C	[0c	1e
2r	.	2r
2C/	.	2g/
=37	=37	=37
1F	0c]	1a
1F	.	1a
=38.	=38.	=38.
2E\	2r	2g/
1C	2c\	4f/
.	.	4e/
.	1d	[1f
4BB/	.	.
4AA/	.	.
=39	=39	=39
1BB	1d	1f]
1C	2c\	1e
.	4B\	.
.	4A/	.
=40.	=40.	=40.
2r	1B	2r
2G\	.	2b\
4F\	1A	2cc\
4E\	.	.
2F\	.	2cc\
=41	=41	=41
2G\	2r	2b\
2E\	2e\	4a/
.	.	4g/
4D\	2f\	1a
4C/	.	.
2D\	2f\	.
=42.	=42.	=42.
2E\	2.e\	1g
2C/	.	.
.	4c\	.
4BB/	1d	2r
4AA/	.	.
2BB/	.	2dd\
=43	=43	=43
1C	4c\	2ee\
.	4d\	.
.	4e\	2ee\
.	4f\	.
2r	1g	2dd\
2E\	.	2b\
=44.	=44.	=44.
1E	2r	2b\
.	2e\	2cc\
1D	2f\	4dd\
.	.	4cc\
.	2f\	4b\
.	.	4a/
=45	=45	=45
2E\	2e\	1g
2E\	1c	.
1F	.	1a
.	2d\	.
=46.	=46.	=46.
1E	4e\	1g
.	4d\	.
.	4c\	.
.	4B\	.
2r	1A	2r
2A\	.	2cc\
=47	=47	=47
2G\	2r	2b\
2A\	2.A/	1cc
1F	.	.
.	4B\	.
.	4c\	4b\
.	4d\	4a/
=48.	=48.	=48.
0E	4e\	2g/
.	4f\	.
.	1g	2.e/
.	.	4f/
.	4f\	4g/
.	4e\	4a/
=49	=49	=49
2r	2d\	4b\
.	.	4cc\
2G\	2d\	2dd\
4C/	1e	2cc\
4D\	.	.
4E\	.	[2b\
4F\	.	.
=50.	=50.	=50.
2G\	4d\	4b\]
.	4c\	4a/
2A\	4B\	1a
.	4A/	.
1E	1B	.
.	.	2g#i/
=51	=51	=51
2AA/	1A	1a
2F\	.	.
2F\	1A	2r
2F\	.	2cc\
=52.	=52.	=52.
2G\	2r	2b\
2A\	2.A/	1cc
1F	.	.
.	4B\	.
.	4c\	4b\
.	4d\	4a/
=53	=53	=53
2E\	4e\	2g/
.	4f\	.
2.C/	1g	2.e/
4D\	.	4f/
4E\	4f\	4g/
4F\	4e\	4a/
=54.	=54.	=54.
2G\	2d\	4b\
.	.	4cc\
2D\	2d\	2dd\
2A\	1e	2cc\
2G\	.	[2b\
=55	=55	=55
2A\	4d\	4b\]
.	4c\	4a/
2F\	4B\	1a
.	4A/	.
1E	1B	.
.	.	2g#i/
=56.	=56.	=56.
0AAl	0Al	0al
==	==	==
*-	*-	*-
!!!RDF**kern: l=long note in original notation
!!!RDF**kern: i=editorial accidental
!!!ENC:	Chris Gage 06-17-2013
!!!END:	2013/08/08/
!!!EED:	Jesse Rodin
!!!EEV:	2013/08/10/
!!!ONB:	Translated from MusicXML and edited on 2013/08/10/ by Craig Sapp
!!muse2ps: C^@{COM}^i2I150v85,85,150Q16
